X: 1028
T: Hicaz Örnek-öz
C: Rûhî Ayangil
O: Turkey
F: http://compmusic.upf.edu/node/140
N: hicaz--ornek-oz--devrihindi--1--ruhi_ayangil
N: makam= hicaz
N: form= ornek-oz
N: usul= devrihindi = 7/4
M: 7/4
L: 1/16
K: C _7/8B ^f ^c 
Q: 1/4=60
%%MIDI tuningsystem comma53
A_B cd e=f ed cB A4  | ed e^3/4f ga g^2/4f ed c4  | 
w:   |   | 
de =fe de dc BA B4  | ^3/4FG AB ed cB2c A4  | 
w:   |   | 
|


